X: 1645
T: Young Edmond O'Neill   #1
%S: s:2 b:16(4+4+4+4)
M: C|
L: 1/8
B: O'Neill's 1850 #1645
O: J.O'Neill
K: G
(3DEF \
| G2(F<G) G2(F<G) | G>FG>e d>BA>^G | A>Bc>d e>bg>e | d>^df>e d>^c=c>A |
| G2(F<G) G2(F<G) | G>FG>e d>BA>^G | A>Bc>d (3fed (3cBA | G>DB,>D G,2 :|
|: D2 \
| (3GAB D2 G>FE>D | E2[E2e2] [E2e2] A>G | (3FGA A,2 F>EB,>C | D2[D2d2] [D2d2] D2 |
| (3GAB D2 G>FE>D | [C2E2][G2e2] [F2d2] [E2c2] | (3Bge (3dBG (3DCB, (3CB,A, | G,2G2 G2 :|
